actions/16/system-suspend.svg

<?xml version="1.0" encoding="UTF-8" standalone="no"?>
<!-- Created with Inkscape (http://www.inkscape.org/) -->

<svg
   xmlns:dc="http://purl.org/dc/elements/1.1/"
   xmlns:cc="http://creativecommons.org/ns#"
   xmlns:rdf="http://www.w3.org/1999/02/22-rdf-syntax-ns#"
   xmlns:svg="http://www.w3.org/2000/svg"
   xmlns="http://www.w3.org/2000/svg"
   xmlns:sodipodi="http://sodipodi.sourceforge.net/DTD/sodipodi-0.dtd"
   xmlns:inkscape="http://www.inkscape.org/namespaces/inkscape"
   width="16.000004"
   height="16.000004"
   id="svg13094"
   version="1.1"
   inkscape:version="0.48.3.1 r9886"
   sodipodi:docname="system-suspend.svg">
  <sodipodi:namedview
     id="base"
     pagecolor="#ffffff"
     bordercolor="#666666"
     borderopacity="1.0"
     inkscape:pageopacity="0.0"
     inkscape:pageshadow="2"
     inkscape:zoom="32.000002"
     inkscape:cx="-0.30706589"
     inkscape:cy="9.0194918"
     inkscape:document-units="px"
     inkscape:current-layer="svg13094"
     showgrid="true"
     inkscape:snap-bbox="true"
     inkscape:bbox-paths="true"
     inkscape:bbox-nodes="true"
     inkscape:snap-bbox-edge-midpoints="true"
     inkscape:snap-bbox-midpoints="true"
     inkscape:object-paths="true"
     inkscape:snap-intersection-paths="true"
     inkscape:object-nodes="true"
     inkscape:snap-smooth-nodes="true"
     inkscape:snap-midpoints="true"
     inkscape:snap-object-midpoints="true"
     inkscape:snap-center="true"
     showguides="true"
     inkscape:guide-bbox="true"
     inkscape:window-width="1920"
     inkscape:window-height="1032"
     inkscape:window-x="-7"
     inkscape:window-y="25"
     inkscape:window-maximized="1"
     inkscape:snap-global="true"
     fit-margin-top="0"
     fit-margin-left="0"
     fit-margin-right="0"
     fit-margin-bottom="0"
     showborder="true"
     inkscape:showpageshadow="false">
    <inkscape:grid
       type="xygrid"
       id="grid3075"
       empspacing="5"
       visible="true"
       enabled="true"
       snapvisiblegridlinesonly="true"
       originx="1.6362304e-08px"
       originy="18px" />
  </sodipodi:namedview>
  <defs
     id="defs13096" />
  <metadata
     id="metadata13099">
    <rdf:RDF>
      <cc:Work
         rdf:about="">
        <dc:format>image/svg+xml</dc:format>
        <dc:type
           rdf:resource="http://purl.org/dc/dcmitype/StillImage" />
        <dc:title />
      </cc:Work>
    </rdf:RDF>
  </metadata>
  <path
     sodipodi:nodetypes="sccsccsccccccsccscc"
     inkscape:connector-curvature="0"
     id="path2990"
     d="M 8,1 C 5.2090101,1 2.8116935,2.6369784 1.6875,5 L 4.03125,5 C 4.9445925,3.8004547 6.3759657,3 8,3 c 1.6311073,0 3.087322,0.7915163 4,2 l 2.3125,0 C 13.188307,2.6369784 10.79099,1 8,1 z m -7,6.0000038 0,2 L 15,9 15,7 z M 1.6875,11 c 1.1241935,2.363022 3.5215101,4 6.3125,4 2.79099,0 5.188307,-1.636978 6.3125,-4 L 12,11 C 11.087322,12.208484 9.6311073,13 8,13 6.3625408,13 4.9120363,12.216526 4,11 z"
     style="fill:#27303a;fill-opacity:0.753280819999999968;fill-rule:nonzero;stroke:none" />
  <path
     style="color:#000000;fill:#f1f3f5;fill-opacity:0.90288714000000003;fill-rule:nonzero;stroke:none;stroke-width:2;marker:none;visibility:visible;display:inline;overflow:visible;enable-background:accumulate"
     d="M 8 -0.25 C 4.8923675 -0.25 2.1880598 1.461736 0.78125 4 L 2.25 4 C 3.5154783 2.1905403 5.6243767 1 8 1 C 10.370997 1 12.455141 2.1957241 13.71875 4 L 15.21875 4 C 13.814797 1.4559856 11.113218 -0.25 8 -0.25 z M 0.78125 12 C 2.1880598 14.538264 4.8923675 16.25 8 16.25 C 11.113218 16.25 13.814797 14.544015 15.21875 12 L 13.71875 12 C 12.455141 13.804276 10.370997 15 8 15 C 5.6243767 15 3.5154783 13.80946 2.25 12 L 0.78125 12 z "
     id="path2986" />
  <path
     style="color:#000000;fill:#f1f3f5;fill-opacity:0.90288714000000003;fill-rule:nonzero;stroke:none;stroke-width:2;marker:none;visibility:visible;display:inline;overflow:visible;enable-background:accumulate"
     d="m 16,6.0000038 -15.999999983637696,0 0,4.0000002 L 16,10.000004 z m -1,1 0,2 -14,0 0,-2 z"
     id="rect2996"
     inkscape:connector-curvature="0"
     sodipodi:nodetypes="cccccccccc" />
</svg>

<?xml version="1.0" encoding="UTF-8"?>
<svg id="b" width="16" height="16" version="1.1" xmlns="http://www.w3.org/2000/svg" xmlns:cc="http://creativecommons.org/ns#" xmlns:dc="http://purl.org/dc/elements/1.1/" xmlns:rdf="http://www.w3.org/1999/02/22-rdf-syntax-ns#">
	<metadata id="c">
		<rdf:RDF>
			<cc:Work rdf:about="">
				<dc:format>image/svg+xml</dc:format>
				<dc:type rdf:resource="http://purl.org/dc/dcmitype/StillImage"/>
				<dc:title/>
			</cc:Work>
		</rdf:RDF>
	</metadata>
	<defs>
		<style id="current-color-scheme" type="text/css">.ColorScheme-Text {color:#090d11;}.ColorScheme-Background{color:#ffffff;}</style>
	</defs>
	<path id="d" d="m8 1c-2.791 0-5.1883 1.637-6.3125 4h2.3438c0.91334-1.1995 2.3447-2 3.9688-2 1.6311 0 3.0873 0.79152 4 2h2.3125c-1.1242-2.363-3.5215-4-6.3125-4zm-7 6v2l14-3.8e-6v-2zm0.6875 4c1.1242 2.363 3.5215 4 6.3125 4 2.791 0 5.1883-1.637 6.3125-4h-2.3125c-0.91268 1.2085-2.3689 2-4 2-1.6375 0-3.088-0.78347-4-2z" style="fill-opacity:.75;fill:currentColor" class="ColorScheme-Text"/>
	<path id="a" d="m8 0c-2.9248 0-5.4709 1.611-6.7949 4h1.0449c1.2655-1.8095 3.3744-3 5.75-3 2.371 0 4.4551 1.1957 5.7188 3h1.0762c-1.3214-2.3944-3.8648-4-6.7949-4zm-8 6v4h16v-4h-16zm1 1h14v2h-14v-2zm0.20508 5c1.3241 2.389 3.8701 4 6.7949 4 2.9301 0 5.4736-1.6056 6.7949-4h-1.0762c-1.2636 1.8043-3.3478 3-5.7188 3-2.3756 0-4.4845-1.1905-5.75-3h-1.0449z" style="fill-opacity:.5;fill:currentColor"  class="ColorScheme-Background"/>
</svg>
